img/insta.svg

<svg width="18" height="18" viewBox="0 0 18 18" fill="none" xmlns="http://www.w3.org/2000/svg">
<path d="M10.582 9C10.582 9.87369 9.87369 10.582 9 10.582C8.12631 10.582 7.41797 9.87369 7.41797 9C7.41797 8.12631 8.12631 7.41797 9 7.41797C9.87369 7.41797 10.582 8.12631 10.582 9Z" fill="#EDEDED"/>
<path d="M11.6719 4.21875H6.32812C5.16495 4.21875 4.21875 5.16495 4.21875 6.32812V11.6719C4.21875 12.8351 5.16495 13.7812 6.32812 13.7812H11.6719C12.8351 13.7812 13.7812 12.8351 13.7812 11.6719V6.32812C13.7812 5.16495 12.8351 4.21875 11.6719 4.21875ZM9 11.6367C7.5461 11.6367 6.36328 10.4539 6.36328 9C6.36328 7.5461 7.5461 6.36328 9 6.36328C10.4539 6.36328 11.6367 7.5461 11.6367 9C11.6367 10.4539 10.4539 11.6367 9 11.6367ZM12.0234 6.50391C11.7322 6.50391 11.4961 6.26784 11.4961 5.97656C11.4961 5.68529 11.7322 5.44922 12.0234 5.44922C12.3147 5.44922 12.5508 5.68529 12.5508 5.97656C12.5508 6.26784 12.3147 6.50391 12.0234 6.50391Z" fill="#EDEDED"/>
<path d="M13.2539 0H4.74609C2.12915 0 0 2.12915 0 4.74609V13.2539C0 15.8708 2.12915 18 4.74609 18H13.2539C15.8708 18 18 15.8708 18 13.2539V4.74609C18 2.12915 15.8708 0 13.2539 0ZM14.8359 11.6719C14.8359 13.4165 13.4165 14.8359 11.6719 14.8359H6.32812C4.5835 14.8359 3.16406 13.4165 3.16406 11.6719V6.32812C3.16406 4.5835 4.5835 3.16406 6.32812 3.16406H11.6719C13.4165 3.16406 14.8359 4.5835 14.8359 6.32812V11.6719Z" fill="#EDEDED"/>
</svg>

<svg width="18" height="18" fill="none" xmlns="http://www.w3.org/2000/svg"><path d="M10.582 9a1.582 1.582 0 11-3.164 0 1.582 1.582 0 013.164 0z" fill="#EDEDED"/><path d="M11.672 4.219H6.328c-1.163 0-2.11.946-2.11 2.11v5.343c0 1.163.947 2.11 2.11 2.11h5.344c1.163 0 2.11-.947 2.11-2.11V6.328c0-1.163-.947-2.11-2.11-2.11zM9 11.637A2.64 2.64 0 016.363 9 2.64 2.64 0 019 6.363 2.64 2.64 0 0111.637 9 2.64 2.64 0 019 11.637zm3.023-5.133a.527.527 0 110-1.055.527.527 0 010 1.055z" fill="#EDEDED"/><path d="M13.254 0H4.746A4.752 4.752 0 000 4.746v8.508A4.752 4.752 0 004.746 18h8.508A4.752 4.752 0 0018 13.254V4.746A4.752 4.752 0 0013.254 0zm1.582 11.672a3.168 3.168 0 01-3.164 3.164H6.328a3.168 3.168 0 01-3.164-3.164V6.328a3.168 3.168 0 013.164-3.164h5.344a3.168 3.168 0 013.164 3.164v5.344z" fill="#EDEDED"/></svg>
